papirus-arc-dark/64x64/places/folder-development.svg

<?xml version="1.0" encoding="UTF-8" standalone="no"?>
<svg
   xmlns:dc="http://purl.org/dc/elements/1.1/"
   xmlns:cc="http://creativecommons.org/ns#"
   xmlns:rdf="http://www.w3.org/1999/02/22-rdf-syntax-ns#"
   xmlns:svg="http://www.w3.org/2000/svg"
   xmlns="http://www.w3.org/2000/svg"
   height="64"
   version="1.1"
   width="64"
   viewBox="0 0 64.000001 64.000001"
   id="svg2">
  <defs
     id="defs13" />
  <metadata
     id="metadata7">
    <rdf:RDF>
      <cc:Work
         rdf:about="">
        <dc:format>image/svg+xml</dc:format>
        <dc:type
           rdf:resource="http://purl.org/dc/dcmitype/StillImage" />
        <dc:title />
      </cc:Work>
    </rdf:RDF>
  </metadata>
  <g
     transform="translate(0 -988.36)"
     id="layer1">
    <path
       d="m7 1035.9v-34.988c0-1.3845 1.1235-2.653 2.5-2.5001h19.5l6 4.9992h19.628s2.3718 0 2.3718 2.4992v29.99c0 1.3845-1.115 2.4992-2.5 2.4992h-44.999c-1.385 0-2.5-1.1146-2.5-2.4992z"
       fill="#5895dc"
       id="path5171" />
    <path
       d="m33.68 1003.3-3.68 4.088h-20.5c-2.5 0-2.5 2.396-2.5 2.396v2s0-2.396 2.5-2.396h20.5l4.5-5h0.48633l-1.3066-1.0879zm22.355 1.5645c0.57756 0.4666 0.95676 1.2108 0.96289 2.0039-0.0091-1.0703-0.45872-1.6611-0.96289-2.0039z"
       opacity=".1"
       id="path5041" />
    <path
       d="m57 1040.9v-35c0-1.385-1.1235-2.653-2.5-2.5h-20l-4.5 5h-20.5c-2.5 0-2.5 2.3959-2.5 2.3959v30.104c0 1.385 1.115 2.5 2.5 2.5h45c1.385 0 2.5-1.115 2.5-2.5z"
       fill="#6ba4e7"
       id="path5173" />
    <path
       fill="#fff"
       transform="translate(0 988.36)"
       d="m34.5 15l-4.5 5h-20.5c-2.5 0-2.5 2.396-2.5 2.396v1s0-2.396 2.5-2.396h20.5l4.5-5h20c1.377-0.153 2.5 1.115 2.5 2.5v-1c0-1.385-1.123-2.653-2.5-2.5h-20z"
       opacity=".1"
       id="path5029" />
    <path
       d="m7 1040.9v1c0 1.385 1.115 2.5 2.5 2.5h45c1.385 0 2.5-1.115 2.5-2.5v-1c0 1.385-1.115 2.5-2.5 2.5h-45c-1.385 0-2.5-1.115-2.5-2.5z"
       opacity=".2"
       id="path5034" />
    <path
       fill="#fff"
       transform="translate(0 988.36)"
       d="m9.5 10.014c-1.3765-0.1536-2.5 1.115-2.5 2.5v1c0-1.385 1.1235-2.654 2.5-2.5h19.5l6 4.998h19.629s2.371 0.001 2.371 2.5v-1c0-2.499-2.371-2.5-2.371-2.5h-19.629l-6-4.998h-19.5z"
       opacity=".1"
       id="path5024" />
  </g>
  <rect
     ry="0.66441441"
     rx="0.7434476"
     y="28"
     x="22"
     height="20"
     width="20"
     id="rect4141"
     style="opacity:0.00100002;fill:#000000;fill-opacity:1;stroke:none;stroke-width:2;stroke-linecap:round;stroke-linejoin:round;stroke-miterlimit:4;stroke-dasharray:none;stroke-opacity:1" />
  <path
     style="opacity:0.65;fill:#000000;fill-opacity:1;enable-background:new"
     d="m 29.476567,28.000005 0,0.004 -0.222656,2.63281 a 7.9282686,7.8566568 0 0 0 -2.316405,1.328032 l -2.414061,-1.128906 -2.523437,4.332029 2.195311,1.511719 a 7.9282686,7.8566568 0 0 0 -0.125,1.324217 7.9282686,7.8566568 0 0 0 0.11718,1.332031 l -2.187499,1.5 2.523437,4.332028 2.410155,-1.128906 a 7.9282686,7.8566568 0 0 0 2.324217,1.324219 l 0.218758,2.636717 5.046874,0 0.222656,-2.632811 a 7.9282686,7.8566568 0 0 0 2.316405,-1.328125 l 2.414061,1.125 L 42,40.835937 39.808595,39.328124 A 7.9282686,7.8566568 0 0 0 39.925783,38 7.9282686,7.8566568 0 0 0 39.808595,36.671877 l 2.187499,-1.507813 -2.519531,-4.328123 -2.414061,1.125 a 7.9282686,7.8566568 0 0 0 -2.320311,-1.320314 l -0.21875,-2.640622 -5.046874,0 z m 2.523437,5.999997 A 3.9999975,3.9999983 0 0 1 36.000003,38 3.9999975,3.9999983 0 0 1 32.000004,41.999999 3.9999975,3.9999983 0 0 1 28.000006,38 3.9999975,3.9999983 0 0 1 32.000004,34.000002 Z"
     id="path4981" />
</svg>

<?xml version="1.0" encoding="UTF-8" standalone="no"?>
<svg id="svg2" xmlns:rdf="http://www.w3.org/1999/02/22-rdf-syntax-ns#" xmlns="http://www.w3.org/2000/svg" height="64" width="64" version="1.1" xmlns:cc="http://creativecommons.org/ns#" viewBox="0 0 64.000001 64.000001" xmlns:dc="http://purl.org/dc/elements/1.1/">
 <metadata id="metadata7">
  <rdf:RDF>
   <cc:Work rdf:about="">
    <dc:format>image/svg+xml</dc:format>
    <dc:type rdf:resource="http://purl.org/dc/dcmitype/StillImage"/>
    <dc:title/>
   </cc:Work>
  </rdf:RDF>
 </metadata>
 <g id="layer1" transform="translate(0 -988.36)">
  <path id="path5171" d="m7 1035.9v-34.988c0-1.3845 1.1235-2.653 2.5-2.5001h19.5l6 4.9992h19.628s2.3718 0 2.3718 2.4992v29.99c0 1.3845-1.115 2.4992-2.5 2.4992h-44.999c-1.385 0-2.5-1.1146-2.5-2.4992z" fill="#5895dc"/>
  <path id="path5041" opacity=".1" d="m33.68 1003.3-3.68 4.088h-20.5c-2.5 0-2.5 2.396-2.5 2.396v2s0-2.396 2.5-2.396h20.5l4.5-5h0.48633l-1.3066-1.0879zm22.355 1.5645c0.57756 0.4666 0.95676 1.2108 0.96289 2.0039-0.0091-1.0703-0.45872-1.6611-0.96289-2.0039z"/>
  <path id="path5173" d="m57 1040.9v-35c0-1.385-1.1235-2.653-2.5-2.5h-20l-4.5 5h-20.5c-2.5 0-2.5 2.3959-2.5 2.3959v30.104c0 1.385 1.115 2.5 2.5 2.5h45c1.385 0 2.5-1.115 2.5-2.5z" fill="#6ba4e7"/>
  <path id="path5029" opacity=".1" d="m34.5 15l-4.5 5h-20.5c-2.5 0-2.5 2.396-2.5 2.396v1s0-2.396 2.5-2.396h20.5l4.5-5h20c1.377-0.153 2.5 1.115 2.5 2.5v-1c0-1.385-1.123-2.653-2.5-2.5h-20z" transform="translate(0 988.36)" fill="#fff"/>
  <path id="path5034" opacity=".2" d="m7 1040.9v1c0 1.385 1.115 2.5 2.5 2.5h45c1.385 0 2.5-1.115 2.5-2.5v-1c0 1.385-1.115 2.5-2.5 2.5h-45c-1.385 0-2.5-1.115-2.5-2.5z"/>
  <path id="path5024" opacity=".1" d="m9.5 10.014c-1.3765-0.1536-2.5 1.115-2.5 2.5v1c0-1.385 1.1235-2.654 2.5-2.5h19.5l6 4.998h19.629s2.371 0.001 2.371 2.5v-1c0-2.499-2.371-2.5-2.371-2.5h-19.629l-6-4.998h-19.5z" transform="translate(0 988.36)" fill="#fff"/>
 </g>
 <rect id="rect4141" opacity="0.001" rx=".74345" ry=".66441" height="20" width="20" y="28" x="22"/>
 <path id="path4981" opacity=".65" style="enable-background:new" d="m29.477 28v0.004l-0.22266 2.6328a7.9283 7.8567 0 0 0 -2.3164 1.328l-2.4141-1.1289-2.5234 4.332 2.1953 1.5117a7.9283 7.8567 0 0 0 -0.125 1.3242 7.9283 7.8567 0 0 0 0.11718 1.332l-2.1875 1.5 2.5234 4.332 2.4102-1.1289a7.9283 7.8567 0 0 0 2.3242 1.3242l0.21876 2.6367h5.0469l0.22266-2.6328a7.9283 7.8567 0 0 0 2.3164 -1.3281l2.4141 1.125 2.524-4.328-2.191-1.508a7.9283 7.8567 0 0 0 0.117 -1.328 7.9283 7.8567 0 0 0 -0.117 -1.328l2.1875-1.5078-2.5195-4.3281-2.4141 1.125a7.9283 7.8567 0 0 0 -2.3203 -1.3203l-0.21875-2.6406h-5.0469zm2.5234 6a4 4 0 0 1 4 4 4 4 0 0 1 -4 4 4 4 0 0 1 -4 -4 4 4 0 0 1 4 -4z"/>
</svg>
